client/public/icons/patients_icon.svg

<svg width="66" height="66" viewBox="0 0 66 66" fill="none" xmlns="http://www.w3.org/2000/svg">
<rect width="66" height="66" rx="10" fill="#F6F8FF"/>
<path d="M39.8996 41.8116V36.3809H25.5508V41.8116L32.7252 48.0183L39.8996 41.8116Z" fill="#E6AF78" fill-opacity="0.56"/>
<path d="M50.9942 44.3515L41.1299 42.0926C40.9809 42.0585 40.8439 42.0005 40.7157 41.9303L32.7262 46.4662L25.0483 41.7109C24.8496 41.893 24.6028 42.0284 24.3226 42.0927L14.4584 44.3516C13.018 44.6814 12 45.9323 12 47.3724V53.4487C12 54.3058 12.7138 55.0004 13.5943 55.0004H51.858C52.7386 55.0004 53.4523 54.3057 53.4523 53.4487V47.3724C53.4525 45.9322 52.4345 44.6812 50.9942 44.3515Z" fill="#577CFF"/>
<path d="M25.5508 36.3809V42.1109C34.5886 45.28 39.8996 37.3485 39.8996 37.3485V36.3809H25.5508V36.3809Z" fill="#D29B6E" fill-opacity="0.34"/>
<path d="M22.3633 18.5371L23.0579 33.4109C23.1228 34.8004 23.8228 36.089 24.9661 36.9235L28.2622 39.3294C29.0901 39.9337 30.0971 40.2605 31.132 40.2605H34.3207C35.3556 40.2605 36.3626 39.9338 37.1905 39.3294L40.4866 36.9235C41.6299 36.0889 42.3299 34.8005 42.3948 33.4109L43.0894 18.5371H22.3633Z" fill="#F7DECE"/>
<path d="M30.335 21.6405C33.5236 21.6405 38.3065 20.8647 39.441 18.5371H22.3633L23.0579 33.4109C23.1228 34.8004 23.8228 36.0889 24.9662 36.9235L28.2623 39.3294C29.0902 39.9337 30.0972 40.2605 31.1321 40.2605H32.7264C31.1321 40.2605 27.9434 37.1571 27.9434 33.278C27.9434 31.3808 27.9434 26.2955 27.9434 23.968C27.9434 23.1921 28.7406 21.6405 30.335 21.6405Z" fill="#F2D4B7"/>
<path d="M17.856 49.9633L12.6905 45.4473C12.2577 45.9807 12.0039 46.6519 12.0039 47.3705V53.4468C12.0039 54.3039 12.7177 54.9985 13.5982 54.9985H19.1783V52.8492C19.1782 51.7482 18.6975 50.699 17.856 49.9633Z" fill="#7F9BFF"/>
<path d="M47.6035 49.9633L52.7691 45.4473C53.2019 45.9807 53.4557 46.6519 53.4557 47.3705V53.4468C53.4557 54.3039 52.7419 54.9985 51.8614 54.9985H46.2812V52.8492C46.2812 51.7482 46.762 50.699 47.6035 49.9633Z" fill="#7F9BFF"/>
<path d="M25.4396 40.0859L32.726 46.4682C32.726 46.4682 30.6854 47.4708 28.1673 49.4915C27.6478 49.9083 26.8621 49.7394 26.5835 49.1429L23.1602 41.8133L24.2431 40.2324C24.5126 39.8386 25.0783 39.7695 25.4396 40.0859Z" fill="#7F9BFF"/>
<path d="M40.013 40.0859L32.7266 46.4682C32.7266 46.4682 34.7672 47.4708 37.2853 49.4915C37.8048 49.9083 38.5905 49.7394 38.8691 49.1429L42.2924 41.8133L41.2095 40.2324C40.9399 39.8386 40.3742 39.7695 40.013 40.0859Z" fill="#7F9BFF"/>
<path d="M37.5586 13.398L38.3059 18.5379C41.7173 19.2019 42.2089 24.4124 42.2797 25.9005C42.2925 26.1706 42.3811 26.4314 42.5317 26.6586L43.8333 28.6237C43.8333 28.6237 43.3878 25.3749 45.4276 23.1929C45.4276 23.1929 46.1281 10.2946 37.5586 13.398Z" fill="#404040"/>
<path d="M23.1277 12.0066L24.3068 12.7905C18.9758 16.6212 19.9722 23.1915 19.9722 23.1915C21.5665 24.7432 21.5665 28.6224 21.5665 28.6224L23.1608 27.0707C23.1608 27.0707 22.5455 22.5884 25.5522 20.8641C28.3423 19.2639 30.7836 20.0882 33.2748 20.0882C39.951 20.0882 41.8193 17.6395 41.4955 14.6574C41.3279 13.1144 38.9038 9.90016 32.7268 10.0024C30.2339 10.0436 25.5524 10.7782 23.1277 12.0066Z" fill="#242424"/>
</svg>

<?xml version="1.0" encoding="UTF-8"?>
<svg id="Layer_1" xmlns="http://www.w3.org/2000/svg" version="1.1" viewBox="0 0 66 66">
  <!-- Generator: Adobe Illustrator 29.3.0, SVG Export Plug-In . SVG Version: 2.1.0 Build 146)  -->
  <defs>
    <style>
      .st0 {
        fill: #404040;
      }

      .st1 {
        fill: #e6af78;
        fill-opacity: .6;
      }

      .st2 {
        fill: #f7dece;
      }

      .st3 {
        fill: #3490dc;
      }

      .st4 {
        fill: #7f9bff;
      }

      .st5 {
        fill: #242424;
      }

      .st6 {
        fill: #d29b6e;
        fill-opacity: .3;
      }

      .st7 {
        fill: #f2d4b7;
      }

      .st8 {
        fill: #f6f8ff;
      }
    </style>
  </defs>
  <rect class="st8" y="0" width="66" height="66" rx="10" ry="10"/>
  <path class="st1" d="M39.9,41.8v-5.4h-14.3v5.4l7.2,6.2,7.2-6.2Z"/>
  <path class="st3" d="M51,44.4l-9.9-2.3c-.1,0-.3,0-.4-.2l-8,4.5-7.7-4.8c-.2.2-.4.3-.7.4l-9.9,2.3c-1.4.3-2.5,1.6-2.5,3v6.1c0,.9.7,1.6,1.6,1.6h38.3c.9,0,1.6-.7,1.6-1.6v-6.1c0-1.4-1-2.7-2.5-3Z"/>
  <path class="st6" d="M25.6,36.4v5.7c9,3.2,14.3-4.8,14.3-4.8v-1h-14.3Z"/>
  <path class="st2" d="M22.4,18.5l.7,14.9c0,1.4.8,2.7,1.9,3.5l3.3,2.4c.8.6,1.8.9,2.9.9h3.2c1,0,2-.3,2.9-.9l3.3-2.4c1.1-.8,1.8-2.1,1.9-3.5l.7-14.9h-20.7Z"/>
  <path class="st7" d="M30.3,21.6c3.2,0,8-.8,9.1-3.1h-17.1l.7,14.9c0,1.4.8,2.7,1.9,3.5l3.3,2.4c.8.6,1.8.9,2.9.9h1.6c-1.6,0-4.8-3.1-4.8-7v-9.3c0-.8.8-2.3,2.4-2.3Z"/>
  <path class="st3" d="M17.9,50l-5.2-4.5c-.4.5-.7,1.2-.7,1.9v6.1c0,.9.7,1.6,1.6,1.6h5.6v-2.1c0-1.1-.5-2.2-1.3-2.9Z"/>
  <path class="st3" d="M47.6,50l5.2-4.5c.4.5.7,1.2.7,1.9v6.1c0,.9-.7,1.6-1.6,1.6h-5.6v-2.1c0-1.1.5-2.2,1.3-2.9Z"/>
  <path class="st4" d="M25.4,40.1l7.3,6.4s-2,1-4.6,3c-.5.4-1.3.2-1.6-.3l-3.4-7.3,1.1-1.6c.3-.4.8-.5,1.2-.1Z"/>
  <path class="st4" d="M40,40.1l-7.3,6.4s2,1,4.6,3c.5.4,1.3.2,1.6-.3l3.4-7.3-1.1-1.6c-.3-.4-.8-.5-1.2-.1Z"/>
  <path class="st0" d="M37.6,13.4l.7,5.1c3.4.7,3.9,5.9,4,7.4,0,.3.1.5.3.8l1.3,2s-.4-3.2,1.6-5.4c0,0,.7-12.9-7.9-9.8Z"/>
  <path class="st5" d="M23.1,12l1.2.8c-5.3,3.8-4.3,10.4-4.3,10.4,1.6,1.6,1.6,5.4,1.6,5.4l1.6-1.6s-.6-4.5,2.4-6.2c2.8-1.6,5.2-.8,7.7-.8,6.7,0,8.5-2.4,8.2-5.4-.2-1.5-2.6-4.8-8.8-4.7-2.5,0-7.2.8-9.6,2Z"/>
</svg>
